other/moneymanagerex.svg

<?xml version="1.0" encoding="UTF-8" standalone="no"?>
<svg width="48" height="48" viewBox="0 0 48 48" version="1.1" xmlns:svg="http://www.w3.org/2000/svg" xmlns="http://www.w3.org/2000/svg">
    <defs>
        <style>.cls-1{fill:#fff;}</style>
    </defs>
        <path
            d="M 24 2 A 22 22 0 0 0 2 24 A 22 22 0 0 0 24 46 A 22 22 0 0 0 46 24 A 22 22 0 0 0 24 2 z M 22.884766 9.640625 L 25.382812 9.640625 L 25.382812 11.138672 C 28.514374 11.630636 30.942696 13.571438 31.125 16.882812 L 27.130859 17.382812 C 26.741291 16.064252 26.449133 15.738832 25.382812 14.884766 L 25.404297 21.095703 C 29.190164 21.1756 31.89012 24.530293 31.875 28.371094 C 31.827556 32.34426 29.211135 34.821376 25.382812 35.363281 L 25.382812 38.359375 L 22.884766 38.359375 L 22.884766 35.363281 C 18.834195 35.163482 16.676997 32.196701 16.142578 28.380859 L 20.365234 28.097656 C 20.692362 29.358778 21.568714 30.800803 22.884766 31.607422 L 22.863281 24.929688 C 19.299677 24.307862 16.890625 21.490825 16.890625 17.382812 C 16.935583 13.689346 19.386075 11.635631 22.884766 11.138672 L 22.884766 9.640625 z M 22.884766 14.884766 C 20.215172 15.818735 20.225169 19.060067 22.884766 20.128906 L 22.884766 14.884766 z M 25.382812 25.623047 L 25.382812 31.867188 C 25.997125 31.629955 26.511093 31.453546 26.998047 30.976562 C 28.261683 29.742929 28.679189 26.59698 25.382812 25.623047 z "
          id="circle859"
          class="cls-1" />
</svg>

<?xml version="1.0" encoding="UTF-8"?>
<svg version="1.1" viewBox="0 0 48 48" xmlns="http://www.w3.org/2000/svg">
    <defs>
        <style>.cls-1{fill:#fff;}</style>
    </defs>
    <path class="cls-1" d="m24 2a22 22 0 0 0-22 22 22 22 0 0 0 22 22 22 22 0 0 0 22-22 22 22 0 0 0-22-22zm-1.1152 7.6406h2.498v1.498c3.1316 0.49196 5.5599 2.4328 5.7422 5.7441l-3.9941 0.5c-0.38957-1.3186-0.68173-1.644-1.748-2.498l0.021485 6.2109c3.7859 0.079897 6.4858 3.4346 6.4707 7.2754-0.047444 3.9732-2.6639 6.4503-6.4922 6.9922v2.9961h-2.498v-2.9961c-4.0506-0.1998-6.2078-3.1666-6.7422-6.9824l4.2227-0.2832c0.32713 1.2611 1.2035 2.7031 2.5195 3.5098l-0.021485-6.6777c-3.5636-0.62183-5.9727-3.4389-5.9727-7.5469 0.044958-3.6935 2.4954-5.7472 5.9941-6.2441v-1.498zm0 5.2441c-2.6696 0.93397-2.6596 4.1753 0 5.2441v-5.2441zm2.498 10.738v6.2441c0.61431-0.23723 1.1283-0.41364 1.6152-0.89063 1.2636-1.2336 1.6811-4.3796-1.6152-5.3535z"/>
</svg>
